X: 92
T:London Lasses
M:C|
L:1/8
Q:1/2=100
R:reel
Z:Sean O'Malley, woodenflute amiling list, 7/4/2000
K:G
G3B DG (3Bcd|eaag efg2|G2(3BAG DG (3Bcd|e2dB AGEF|
G3B DG (3Bcd|eaag egg2|bgag (3efg fa|1 gedB AGEF:|2 gedB AGef||
|:g2fg egge|dGG2 BG (3Bcd|g2fg egge|dBGB AEE2|
g2fg egge|dBB2 dega|bgag (3efg fa|1 gedB AGef:|2 gedB AGEF||
<end>
<start>
